!!!SOCIAL_FUNCTION:	songs with the corn dance
!!!PDT:	1956
!!!OTL: No_7_Corn_Dance_Song_(c).krn
!!!LANG: Non-Tone
!!!LING_GROUP: Muskogean
!!!REG: Florida
**kern
*staff1
=1-
*clefF4
*k[]
*M2/4
4G\
4E\
=2
8.E\L
16G\Jk
4G\
=3||
*M7/8
4.G\
8E\L
8G\
8E\
8D\J
=4||
*M2/4
16C/LK
[8.C/J
4C/]
=5||
*M3/4
2C/
8D/L
8C/J
=6||
*M2/4
4C/
4AA/
=7
8.AA/L
16C/Jk
4C;/
=8
4.C/
8AA/
=9
4C/
4AA/
=10
8.AA/L
16C/Jk
4C;/
=11
4C/
4r
=12||
*M3/4
2G\
12G\L
12E\
12G\J
=13||
*M2/4
4E\
8C/
8r
=14
4C/
4r
=15
4D\
4r
=16
4D\
8.C/L
16D/Jk
=17||
*M3/4
8D\
8r
8r
8E\
12E\L
12D\
12C\J
=18
2C/
8D/L
8C/J
=19||
*M2/4
4C/
4AA/
=20
8.AA/L
16C/Jk
4C;/
=21
4.C/
8AA/
=22
4C/
4AA/
=23
8AA/
16r
16C/
4C;/
=24
4C/
4r
=25!|:
4G\
4E\
=26
8.E\L
16G\Jk
4G\
=27||
*M6/8
4G\
8E\
8G\L
8E\
8D\J
=28||
*M2/4
8.C/L
16C/Jk
4C/
=29||
*M3/4
2C/
8D/L
8C/J
=30||
*M2/4
4C/
4AA/
=31
8AA/
16r
16C/
4C;/
=32||
*M3/4
[2C/
8C/L]
8AA/J
=33||
*M2/4
4C/
4AA/
=34
8AA/
16r
16C/
4C;/
=35
4.C/
8r
=36
*M3/4
2G\
12G\L
12E\
12G\J
=37
4E\
8E\L
8D\J
4r
=38||
*M2/4
8E\L
8D\J
16C/LK
8.D/J
=39||
*M3/4
4D\
8r
8E\
12E\L
12D\
12C\J
=40
2C/
8D/L
8C/J
=41||
*M2/4
4C/
4AA/
=42
8.AA/L
16C/Jk
4C;/
=43||
*M3/4
[2C/
8C/L]
8AA/J
=44||
*M2/4
4C/
4AA/
=45
8AA/
16r
16C/
16C/LK
8.C/J
=46
4C/
4r
=47||
*M3/4
4G\
16G\LK
8.E\J
8.E\L
16G\Jk
=48
4E\
8E\L
8D\J
4r
=49||
*M2/4
8E\L
8D\J
8.C/L
16D/Jk
=50||
*M3/4
4E\
8r
8F\
12F\L
12E\
12D\J
=51||
*M2/4
2D\
=52
4E\
4D\
=53
4C/
4BB/
=54
8.AA/L
16C/Jk
4C/
=55||
*M3/4
2C/
8C/L
8AA/J
=56||
!!pagebreak:default
*M2/4
4C/
4AA/
=57
8AA/
16r
16C/
4C/
=58
2BB/
=59:|!
*M3/4
2c\
4c\
=60
(4c\
8E\)
8r
4r
==
*-
